X:104
T:Pollonesse in D-Måll
T:ur Trästadsamlingen
R:Polska
B:Trästadsamlingen
B:Småländsk musiktradition
N:Småländsk musiktradition I:104. Se även Polonäs, sexdregasamlingen del 1 nr 46. http://www.folkwiki.se/Musik/223.
O:Småland
Z:Till abc Jonas Brunskog
M:3/4
L:1/16
K:Dm
|:f4 e4 d4|ABcd efge f2d2|d2ba g2f2 e2d2|A2d^c d8:|
|:DFAF DFAF DFAF|^CEAE CEAE CEAE|DFAF DFAF DFAF|^CEAE CEAE CEAE|
D2FA d4 cBAG|G2EC c4 B2AG|F2ba g2f2 e2d2|A2d^c d8:|

